X: 6
T:Schottische a Dede
M:4/4
L:1/8
R:Schottische
Z:Steve Mansfield
K:Cm
c2e2g2e2 | dedc d4 | defe dc=Bc | d2e2 d2c2 | c2e2g2e2 | dedc d4 |
defe dcde | d2=B2 d4:|[K:C] G2c2e2c2 | BcBA G4 | Bcde dcBc |
defd e2c2 | G2c2e2c2 | BcBA G4 | Bcde dcBc | d2B2 c4 :|

